assets/ico/img-pj.svg

<svg xmlns="http://www.w3.org/2000/svg" viewBox="0 0 512 512" width="512" height="512" style="height: 512px; width: 512px;"><path d="M0 0h512v512H0z" fill="#1e6f6b" fill-opacity="1"></path><g class="" transform="translate(0,0)" style=""><path d="M255 45.4c-24.5 0-47 11.8-63.9 33.4-16.9 21.5-27.1 52.6-27.1 86.5 0 36 12.1 67.5 31 89.5l13.5 15-19.6 4.6c-52.3 11.9-77.4 36.9-91.75 75.2-13.7 35.7-15.6 84.8-16.1 143.3H431c-.2-58.7-.5-109.3-13-145.5-13.4-39.4-37.9-64.3-94-75.4l-19.9-3.7 12.9-15.7c17.7-21.9 28.8-52.6 28.8-87.5 0-33.9-10.3-64.9-27.2-86.3-16.8-21.7-39.3-33.6-63.6-33.4z" fill="#ffffff" fill-opacity="1"></path></g></svg>

<svg xmlns="http://www.w3.org/2000/svg" viewBox="0 0 512 512" style="height: 512px; width: 512px;"><defs><filter id="shadow-1" height="300%" width="300%" x="-100%" y="-100%"><feFlood flood-color="rgba(208, 2, 27, 1)" result="flood"></feFlood><feComposite in="flood" in2="SourceGraphic" operator="atop" result="composite"></feComposite><feGaussianBlur in="composite" stdDeviation="15" result="blur"></feGaussianBlur><feOffset dx="0" dy="0" result="offset"></feOffset><feComposite in="SourceGraphic" in2="offset" operator="over"></feComposite></filter></defs><path d="M0 0h512v512H0z" fill="#000000" fill-opacity="1"></path><g class="" transform="translate(0,0)" style=""><g><path d="M255 45.4C230.5 45.4 208 57.2 191.1 78.8C174.2 100.3 164 131.4 164 165.3C164 201.3 176.1 232.8 195 254.8L208.5 269.8L188.9 274.4C136.6 286.3 111.5 311.3 97.15 349.6C83.45 385.3 81.55 434.4 81.05 492.9L431 492.9C430.8 434.2 430.5 383.6 418 347.4C404.6 308 380.1 283.1 324 272L304.1 268.3L317 252.6C334.7 230.7 345.8 200 345.8 165.1C345.8 131.2 335.5 100.2 318.6 78.8C301.8 57.1 279.3 45.2 255 45.4Z" class="selected" fill="#cfcfd1" fill-opacity="1"></path></g></g></svg>
